public/location.svg

<svg width="28" height="28" viewBox="0 0 28 28" fill="none" xmlns="http://www.w3.org/2000/svg">
<path d="M14.0032 13.65C14.6778 13.65 15.2542 13.4098 15.7325 12.9294C16.2109 12.449 16.45 11.8715 16.45 11.1969C16.45 10.5223 16.2098 9.94583 15.7294 9.4675C15.249 8.98917 14.6715 8.75 13.9969 8.75C13.3223 8.75 12.7459 8.9902 12.2675 9.47061C11.7892 9.951 11.55 10.5285 11.55 11.2031C11.55 11.8777 11.7903 12.4542 12.2707 12.9325C12.7511 13.4108 13.3286 13.65 14.0032 13.65ZM14 25.235C17.1034 22.4117 19.3959 19.8508 20.8775 17.5525C22.3592 15.2542 23.1 13.23 23.1 11.48C23.1 8.73157 22.2216 6.48112 20.4648 4.72867C18.708 2.97622 16.5531 2.1 14 2.1C11.447 2.1 9.29206 2.97622 7.53527 4.72867C5.77846 6.48112 4.90005 8.73157 4.90005 11.48C4.90005 13.23 5.65838 15.2542 7.17505 17.5525C8.69172 19.8508 10.9667 22.4117 14 25.235ZM14 28C10.2434 24.8033 7.43755 21.8342 5.58255 19.0925C3.72755 16.3508 2.80005 13.8133 2.80005 11.48C2.80005 7.98 3.92588 5.19167 6.17755 3.115C8.42922 1.03833 11.0367 0 14 0C16.9634 0 19.5709 1.03833 21.8225 3.115C24.0742 5.19167 25.2 7.98 25.2 11.48C25.2 13.8133 24.2725 16.3508 22.4175 19.0925C20.5625 21.8342 17.7567 24.8033 14 28Z" fill="white"/>
</svg>

<svg width="28" height="28" fill="none" xmlns="http://www.w3.org/2000/svg"><path d="M14.003 13.65c.675 0 1.251-.24 1.73-.72.478-.481.717-1.059.717-1.733 0-.675-.24-1.251-.72-1.73a2.367 2.367 0 0 0-1.733-.717c-.675 0-1.251.24-1.73.72a2.367 2.367 0 0 0-.717 1.733c0 .675.24 1.251.72 1.73.481.478 1.059.717 1.733.717ZM14 25.235c3.103-2.823 5.396-5.384 6.878-7.683 1.481-2.298 2.222-4.322 2.222-6.072 0-2.748-.878-4.999-2.635-6.751C18.708 2.976 16.553 2.1 14 2.1s-4.708.876-6.465 2.629C5.778 6.48 4.9 8.732 4.9 11.48c0 1.75.758 3.774 2.275 6.072 1.517 2.299 3.792 4.86 6.825 7.683ZM14 28c-3.757-3.197-6.562-6.166-8.417-8.907C3.728 16.35 2.8 13.813 2.8 11.48c0-3.5 1.126-6.288 3.378-8.365C8.429 1.038 11.037 0 14 0s5.57 1.038 7.823 3.115C24.074 5.192 25.2 7.98 25.2 11.48c0 2.333-.927 4.87-2.782 7.613C20.563 21.834 17.757 24.803 14 28Z" fill="#fff"/></svg>
